src/assets/icons/social/twitter.svg

<svg width="36" height="38" viewBox="0 0 36 38" fill="none" xmlns="http://www.w3.org/2000/svg">
<ellipse cx="18" cy="18.9999" rx="18" ry="18.0036" fill="white"/>
<g clip-path="url(#clip0_202_354)">
<path d="M27.8977 10.0191C27.0358 10.627 26.0816 11.092 25.0717 11.3961C24.5296 10.7728 23.8093 10.3311 23.008 10.1306C22.2067 9.9301 21.3632 9.98054 20.5915 10.2751C19.8199 10.5696 19.1573 11.094 18.6933 11.7774C18.2294 12.4608 17.9866 13.2702 17.9977 14.0961V14.9961C16.416 15.0371 14.8488 14.6863 13.4356 13.975C12.0223 13.2636 10.8069 12.2138 9.89766 10.9191C9.89766 10.9191 6.29766 19.0191 14.3977 22.6191C12.5441 23.8772 10.3361 24.5081 8.09766 24.4191C16.1977 28.9191 26.0977 24.4191 26.0977 14.0691C26.0968 13.8184 26.0727 13.5683 26.0257 13.3221C26.9442 12.4162 27.5924 11.2725 27.8977 10.0191V10.0191Z" stroke="#383638" stroke-width="2" stroke-linecap="round" stroke-linejoin="round"/>
</g>
<defs>
<clipPath id="clip0_202_354">
<rect width="21.6" height="21.6" fill="white" transform="translate(7.19922 7.31909)"/>
</clipPath>
</defs>
</svg>

<svg width="36" height="38" fill="none" xmlns="http://www.w3.org/2000/svg"><ellipse cx="18" cy="19" rx="18" ry="18.004" fill="#fff"/><g clip-path="url(#a)"><path d="M27.898 10.02a9.811 9.811 0 0 1-2.826 1.376 4.032 4.032 0 0 0-7.074 2.7v.9a9.594 9.594 0 0 1-8.1-4.077s-3.6 8.1 4.5 11.7a10.477 10.477 0 0 1-6.3 1.8c8.1 4.5 18 0 18-10.35-.001-.25-.025-.5-.072-.747a6.95 6.95 0 0 0 1.872-3.303v0Z" stroke="#383638" stroke-width="2" stroke-linecap="round" stroke-linejoin="round"/></g><defs><clipPath id="a"><path fill="#fff" transform="translate(7.2 7.32)" d="M0 0h21.6v21.6H0z"/></clipPath></defs></svg>
